actions/22x22-light/format-text-symbol.svg

<svg xmlns="http://www.w3.org/2000/svg" viewBox="0 0 22 22">
 <defs id="defs3051">
   <style type="text/css" id="current-color-scheme">
     .ColorScheme-Text {
       color:#4d4d4d;
     }
     </style>
 </defs>
   <path
      style="fill:currentColor;fill-opacity:1;stroke:none"
      d="m8 3s-5 0-5 5c .9988232-1.9976463 1.9984639-2.9976491 4.9902344-3-.0119582 10.936865-2.9877494 11.692212-2.9902344 13.4375 1.5008252 1.1521 3.8453725.5135 4.0175781-1.75l.9765625-11.6875h3.9843754l-.978516 11.75c0 3 4 3 5 0l1-3c-1 2-3.999835 4.999966-3.912109 1.947266l.890625-10.697266h3.021484v-2z"
      class="ColorScheme-Text" />
</svg>

<svg xmlns="http://www.w3.org/2000/svg" viewBox="0 0 22 22">
  <defs id="defs3051">
    <style type="text/css" id="current-color-scheme">
      .ColorScheme-Text {
        color:#4d4d4d;
      }
      </style>
  </defs>
 <path 
    style="fill:currentColor;fill-opacity:1;stroke:none" 
    d="M 8 3 C 8 3 3 3 3 8 C 3.9988232 6.0023537 4.9984639 5.0023509 7.9902344 5 C 7.9782762 15.936865 5.002485 16.692212 5 18.4375 C 6.5008252 19.5896 8.8453725 18.951 9.0175781 16.6875 L 9.9941406 5 L 13.978516 5 L 13 16.75 C 13 19.75 17 19.75 18 16.75 L 19 13.75 C 18 15.75 15.000165 18.749966 15.087891 15.697266 L 15.978516 5 L 19 5 L 19 3 L 8 3 z "
    class="ColorScheme-Text"
    />  
</svg>
